src/assets/waves.svg

<svg fill="none" height="624" viewBox="0 0 623 624" width="623" xmlns="http://www.w3.org/2000/svg"><g stroke="#fff" stroke-opacity=".4" stroke-width="17.222"><path d="m.00014752 101.078c288.03585248 0 521.53485248 233.499 521.53485248 521.535"/><path d="m.816507 54.0312c313.569493 0 567.767493 254.1978 567.767493 567.7678"/><path d="m.814794 146.496c262.502206 0 475.302206 212.8 475.302206 475.303"/><path d="m.00038701 193.539c236.96861299 0 429.06961299 192.101 429.06961299 429.07"/><path d="m.812884 238.961c211.435116 0 382.838116 171.402 382.838116 382.838"/><path d="m.00242877 286.004c185.90157123 0 336.60557123 150.703 336.60557123 336.605"/><path d="m.813067 331.426c160.367933 0 290.372933 130.004 290.372933 290.372"/><path d="m.00071269 378.465c134.83528731 0 244.14028731 109.305 244.14028731 244.14"/><path d="m.811312 424.887c109.301688 0 197.907688 88.606 197.907688 197.907"/><path d="m.00277293 471.93c83.76782707 0 151.67522707 67.907 151.67522707 151.675"/><path d="m.811481 517.352c58.234319 0 105.442519 47.208 105.442519 105.442"/><path d="m.00001621 8.60935c339.10298379.00001 613.99998379 274.89765 613.99998379 614.00065"/></g></svg>

<svg width="623" height="624" viewBox="0 0 623 624" fill="none" xmlns="http://www.w3.org/2000/svg">
<path d="M0.000147522 101.078C288.036 101.078 521.535 334.577 521.535 622.613" stroke="white" stroke-opacity="0.4" stroke-width="17.222"/>
<path d="M0.816507 54.0312C314.386 54.0312 568.584 308.229 568.584 621.799" stroke="white" stroke-opacity="0.4" stroke-width="17.222"/>
<path d="M0.814794 146.496C263.317 146.496 476.117 359.296 476.117 621.799" stroke="white" stroke-opacity="0.4" stroke-width="17.222"/>
<path d="M0.000387014 193.539C236.969 193.539 429.07 385.64 429.07 622.609" stroke="white" stroke-opacity="0.4" stroke-width="17.222"/>
<path d="M0.812884 238.961C212.248 238.961 383.651 410.363 383.651 621.799" stroke="white" stroke-opacity="0.4" stroke-width="17.222"/>
<path d="M0.00242877 286.004C185.904 286.004 336.608 436.707 336.608 622.609" stroke="white" stroke-opacity="0.4" stroke-width="17.222"/>
<path d="M0.813067 331.426C161.181 331.426 291.186 461.43 291.186 621.798" stroke="white" stroke-opacity="0.4" stroke-width="17.222"/>
<path d="M0.000712693 378.465C134.836 378.465 244.141 487.77 244.141 622.605" stroke="white" stroke-opacity="0.4" stroke-width="17.222"/>
<path d="M0.811312 424.887C110.113 424.887 198.719 513.493 198.719 622.794" stroke="white" stroke-opacity="0.4" stroke-width="17.222"/>
<path d="M0.00277293 471.93C83.7706 471.93 151.678 539.837 151.678 623.605" stroke="white" stroke-opacity="0.4" stroke-width="17.222"/>
<path d="M0.811481 517.352C59.0458 517.352 106.254 564.56 106.254 622.794" stroke="white" stroke-opacity="0.4" stroke-width="17.222"/>
<path d="M1.62131e-05 8.60935C339.103 8.60936 614 283.507 614 622.61" stroke="white" stroke-opacity="0.4" stroke-width="17.222"/>
</svg>
